X:156
T: AN EINEM FLUSS DER RAUSCHEND SCHOSS
N: B0647
O: Europa, Mitteleuropa, Deutschland, Rheinland; Wetzlar
R: Moral - Lied, Ballade
M: 6/8
L: 1/8
K: F
C | A2AAGF | c2BB2
A | G2Gc2G | A3z2
F | d2dfed | dcccB
A | Gdcc2E | F3z2

